X: 18526
T: I Have A Bonnet Trimmed With Blue
R: polka
M: 2/4
K: Dmajor
|:DE/F/ GB|AD FD|AB/A/ GE|ED F/G/A|
DE/F/ GB|AD FD|AB/A/ GE|ED D2:|
|:AB/c/ dc/B/|AD FD|AB/A/ GE|ED FA|
AB/c/ dc/B/|AD FD|AB/A/ GE|ED D2:|

